X: 071041
T: Gap of Dunloe
T: Kerry Jig
S: "ITM Session Tunes vol 3" ("Sully")
Z: B.Black
M: 12/8
L: 1/8
R: slide
K: Dmix
A3 A2G A3 A2F|G2E A2F G2E E3|
A3 A2c B2G G3|(3B^cd B2G =c3 B2c :|
e3 e2d e2f g2z|G3 G2F G3 E2G|
A3 A2c B2G G3|(3B^cd B2G =c3 B2c :|
